X: 13
T:The Wind that Shakes the Barley
M:C
L:1/8
R:Reel
K:D
B2 |: A2 AB AFED | B2 BA BcdB | A2 AB AFED |
|1 gfed BcdB :|[2 gfed Bcde |: "B part once" f2 fd g2 ge | f2 fd Bcde |
f2 fd g2 fg | afed Bcde | f2 fd g2 ge |
f2 fd Bcde | defg afbf | gfed BcdB |] A6 |]
